icon/lg/ionic-icon.svg

<?xml version="1.0" encoding="UTF-8"?>
<svg viewBox="0 0 256 256" version="1.1" xmlns="http://www.w3.org/2000/svg" xmlns:xlink="http://www.w3.org/1999/xlink" preserveAspectRatio="xMidYMid" height="1em" width="1em">
  <g>
    <path d="M128.151659,0.00118559798 C148.92891,0.00118559798 168.492891,4.85546114 186.843602,14.2583047 L186.843602,14.2583047 L189.270142,15.4715749 L187.146919,17.1398213 C181.990521,21.2346081 177.895735,26.5426649 175.317536,32.6090156 L175.317536,32.6090156 L174.559242,34.2772621 L173.042654,33.5189682 C158.938389,26.8459825 143.924171,23.3578308 128.303318,23.3578308 C70.521327,23.3578308 23.6587678,70.3720488 23.6587678,128.002381 C23.6587678,185.632712 70.3696682,232.64693 128.151659,232.64693 C185.933649,232.64693 232.796209,185.632712 232.796209,128.002381 C232.796209,114.201433 230.218009,100.703802 224.758294,87.9644659 L224.758294,87.9644659 L224,86.2962194 L225.668246,85.5379256 C231.886256,83.2630441 237.345972,79.4715749 241.744076,74.6184943 L241.744076,74.6184943 L243.412322,72.4952716 L244.473934,74.9218119 C252.208531,91.7559351 256,109.65167 256,127.699063 C256,198.22039 198.521327,255.699063 128,255.699063 C57.478673,255.699063 0,198.22039 0,127.699063 C0,57.177736 57.478673,-0.300936964 128.151659,0.00118559798 Z M128.151659,69.7654137 C160.151659,69.7654137 186.388626,95.8507218 186.540284,128.154039 C186.540284,160.457357 160.454976,186.542665 128.151659,186.542665 C95.8483412,186.542665 69.7630332,160.457357 69.7630332,128.154039 C69.7630332,95.8507218 96,69.7654137 128.151659,69.7654137 Z M211.71564,21.5379256 C226.457193,21.5379256 238.407583,33.4883156 238.407583,48.2298687 C238.407583,62.9714219 226.457193,74.9218119 211.71564,74.9218119 C196.974087,74.9218119 185.023697,62.9714219 185.023697,48.2298687 C185.023697,33.4883156 196.974087,21.5379256 211.71564,21.5379256 Z" fill="#3880FF"/>
  </g>
</svg>

<svg width="256" height="256" xmlns="http://www.w3.org/2000/svg" preserveAspectRatio="xMidYMid"><path d="M128.152.001c20.777 0 40.34 4.854 58.692 14.257l2.426 1.214-2.123 1.668c-5.156 4.095-9.251 9.403-11.83 15.469l-.758 1.668-1.516-.758c-14.105-6.673-29.119-10.161-44.74-10.161-57.782 0-104.644 47.014-104.644 104.644s46.71 104.645 104.493 104.645c57.782 0 104.644-47.014 104.644-104.645 0-13.8-2.578-27.298-8.038-40.038L224 86.296l1.668-.758c6.218-2.275 11.678-6.066 16.076-10.92l1.668-2.123 1.062 2.427C252.209 91.756 256 109.652 256 127.699c0 70.521-57.479 128-128 128S0 198.22 0 127.7 57.479-.3 128.152.001Zm0 69.764c32 0 58.237 26.086 58.388 58.389 0 32.303-26.085 58.389-58.388 58.389-32.304 0-58.389-26.086-58.389-58.389 0-32.303 26.237-58.389 58.389-58.389Zm83.564-48.227c14.741 0 26.692 11.95 26.692 26.692 0 14.741-11.95 26.692-26.692 26.692s-26.692-11.95-26.692-26.692 11.95-26.692 26.692-26.692Z" fill="#3880FF"/></svg>
